Newaita/actions/22/run-build-prune.svg

<svg height="22" viewBox="0 0 22 22" width="22" xmlns="http://www.w3.org/2000/svg"><path d="m10.003906 1.972656c-.230468 0-.425781.167969-.464844.394532l-.269531 1.628906c-.792969.183594-1.539062.492187-2.207031.910156l-1.339844-.957031c-.078125-.054688-.171875-.085938-.265625-.085938-.128906-.003906-.25.046875-.34375.136719l-1.285156 1.285156c-.164063.164063-.183594.421875-.050781.609375l.957031 1.339844c-.417969.667969-.726563 1.414063-.910156 2.207031l-1.628907.269532c-.226562.039062-.394531.234374-.394531.464843v1.820313c0 .230468.167969.429687.394531.464844l1.628907.273437c.183593.792969.492187 1.535156.910156 2.207031l-.957031 1.339844c-.132813.1875-.113282.445312.050781.605469l1.285156 1.289062c.164063.160157.421875.183594.609375.046875l1.339844-.957031c.667969.417969 1.414062.730469 2.207031.914063l.269531 1.625c.039063.230468.234376.394531.464844.394531h1.820313c.230469 0 .429687-.164063.464843-.394531l.273438-1.625c.058594-.015626.113281-.027344.171875-.042969v-1.902344c-.570313.203125-1.179687.308594-1.820313.308594-3.023437 0-5.457031-2.433594-5.457031-5.457031 0-3.023438 2.433594-5.457032 5.457031-5.457032 3.023438 0 5.457032 2.433594 5.457032 5.457032 0 .640624-.105469 1.25-.308594 1.820312h1.902344c.015625-.058594.027344-.113281.042968-.171875l1.625-.273437c.230469-.035157.394532-.234376.394532-.464844v-1.820313c0-.230469-.164063-.425781-.394532-.464843l-1.625-.269532c-.183593-.792968-.496093-1.539062-.914062-2.207031l.957031-1.339844c.136719-.1875.113281-.445312-.046875-.609375l-1.289062-1.285156c-.089844-.089844-.210938-.140625-.339844-.136719-.09375 0-.1875.03125-.265625.085938l-1.339844.957031c-.671875-.417969-1.414062-.726562-2.207031-.910156l-.273438-1.628906c-.035156-.226563-.234374-.394532-.464843-.394532zm.402344.945313h1.019531l.152344.921875c-.21875-.019532-.4375-.03125-.664063-.03125-.222656 0-.445312.011718-.664062.03125zm-4.90625 2.03125.753906.539062c-.339844.285157-.652344.597657-.9375.9375l-.539062-.753906zm10.832031 0 .71875.722656-.539062.753906c-.28125-.339843-.597657-.652343-.9375-.9375zm-12.664062 5.472656c-.019531.21875-.03125.441406-.03125.664063 0 .226562.011719.445312.03125.664062l-.921875-.152344v-1.019531zm14.496093 0 .921876.15625v1.019531l-.921876.152344c.019532-.21875.027344-.4375.027344-.664062 0-.222657-.007812-.445313-.027344-.664063zm-12.847656 5.324219c.285156.339844.597656.65625.9375.9375l-.753906.542968-.722656-.722656zm4.933594 2.589844c.21875.019531.441406.027343.664062.027343.226563 0 .445313-.007812.664063-.027343l-.152344.921874h-1.019531zm0 0" fill="#424242"/><path d="m9.097656 7.902344c-.269531-.007813-.492187.203125-.492187.472656v5.457031c0 .367188.398437.59375.714843.40625l4.546876-2.730469c.304687-.183593.304687-.625 0-.808593l-4.546876-2.730469c-.070312-.039062-.144531-.0625-.222656-.066406zm0 0" fill="#424242"/><g fill="#f44336"><path d="m18.589844 20.050781-3.859375-3.859375c-.175781-.179687-.175781-.464844 0-.644531l.644531-.640625c.179688-.179688.464844-.179688.644531 0l3.859375 3.859375c.175782.175781.175782.464844 0 .640625l-.644531.644531c-.175781.175781-.464844.175781-.644531 0zm0 0"/><path d="m14.730469 18.765625 3.859375-3.859375c.179687-.179688.46875-.179688.644531 0l.644531.640625c.175782.179687.175782.464844 0 .644531l-3.859375 3.859375c-.179687.175781-.464843.175781-.644531 0l-.644531-.644531c-.175781-.175781-.175781-.464844 0-.640625zm0 0"/></g></svg>

<?xml version="1.0" encoding="UTF-8"?>
<svg xmlns="http://www.w3.org/2000/svg" xmlns:xlink="http://www.w3.org/1999/xlink" width="22px" height="22px" viewBox="0 0 22 22" version="1.1">
<g id="surface1">
<path style=" stroke:none;fill-rule:nonzero;fill:rgb(25.882354%,25.882354%,25.882354%);fill-opacity:1;" d="M 10.003906 1.972656 C 9.773438 1.972656 9.578125 2.140625 9.539062 2.367188 L 9.269531 3.996094 C 8.476562 4.179688 7.730469 4.488281 7.0625 4.90625 L 5.722656 3.949219 C 5.644531 3.894531 5.550781 3.863281 5.457031 3.863281 C 5.328125 3.859375 5.207031 3.910156 5.113281 4 L 3.828125 5.285156 C 3.664062 5.449219 3.644531 5.707031 3.777344 5.894531 L 4.734375 7.234375 C 4.316406 7.902344 4.007812 8.648438 3.824219 9.441406 L 2.195312 9.710938 C 1.96875 9.75 1.800781 9.945312 1.800781 10.175781 L 1.800781 11.996094 C 1.800781 12.226562 1.96875 12.425781 2.195312 12.460938 L 3.824219 12.734375 C 4.007812 13.527344 4.316406 14.269531 4.734375 14.941406 L 3.777344 16.28125 C 3.644531 16.46875 3.664062 16.726562 3.828125 16.886719 L 5.113281 18.175781 C 5.277344 18.335938 5.535156 18.359375 5.722656 18.222656 L 7.0625 17.265625 C 7.730469 17.683594 8.476562 17.996094 9.269531 18.179688 L 9.539062 19.804688 C 9.578125 20.035156 9.773438 20.199219 10.003906 20.199219 L 11.824219 20.199219 C 12.054688 20.199219 12.253906 20.035156 12.289062 19.804688 L 12.5625 18.179688 C 12.621094 18.164062 12.675781 18.152344 12.734375 18.136719 L 12.734375 16.234375 C 12.164062 16.4375 11.554688 16.542969 10.914062 16.542969 C 7.890625 16.542969 5.457031 14.109375 5.457031 11.085938 C 5.457031 8.0625 7.890625 5.628906 10.914062 5.628906 C 13.9375 5.628906 16.371094 8.0625 16.371094 11.085938 C 16.371094 11.726562 16.265625 12.335938 16.0625 12.90625 L 17.964844 12.90625 C 17.980469 12.847656 17.992188 12.792969 18.007812 12.734375 L 19.632812 12.460938 C 19.863281 12.425781 20.027344 12.226562 20.027344 11.996094 L 20.027344 10.175781 C 20.027344 9.945312 19.863281 9.75 19.632812 9.710938 L 18.007812 9.441406 C 17.824219 8.648438 17.511719 7.902344 17.09375 7.234375 L 18.050781 5.894531 C 18.1875 5.707031 18.164062 5.449219 18.003906 5.285156 L 16.714844 4 C 16.625 3.910156 16.503906 3.859375 16.375 3.863281 C 16.28125 3.863281 16.1875 3.894531 16.109375 3.949219 L 14.769531 4.90625 C 14.097656 4.488281 13.355469 4.179688 12.5625 3.996094 L 12.289062 2.367188 C 12.253906 2.140625 12.054688 1.972656 11.824219 1.972656 Z M 10.40625 2.917969 L 11.425781 2.917969 L 11.578125 3.839844 C 11.359375 3.820312 11.140625 3.808594 10.914062 3.808594 C 10.691406 3.808594 10.46875 3.820312 10.25 3.839844 Z M 5.5 4.949219 L 6.253906 5.488281 C 5.914062 5.773438 5.601562 6.085938 5.316406 6.425781 L 4.777344 5.671875 Z M 16.332031 4.949219 L 17.050781 5.671875 L 16.511719 6.425781 C 16.230469 6.085938 15.914062 5.773438 15.574219 5.488281 Z M 3.667969 10.421875 C 3.648438 10.640625 3.636719 10.863281 3.636719 11.085938 C 3.636719 11.3125 3.648438 11.53125 3.667969 11.75 L 2.746094 11.597656 L 2.746094 10.578125 Z M 18.164062 10.421875 L 19.085938 10.578125 L 19.085938 11.597656 L 18.164062 11.75 C 18.183594 11.53125 18.191406 11.3125 18.191406 11.085938 C 18.191406 10.863281 18.183594 10.640625 18.164062 10.421875 Z M 5.316406 15.746094 C 5.601562 16.085938 5.914062 16.402344 6.253906 16.683594 L 5.5 17.226562 L 4.777344 16.503906 Z M 10.25 18.335938 C 10.46875 18.355469 10.691406 18.363281 10.914062 18.363281 C 11.140625 18.363281 11.359375 18.355469 11.578125 18.335938 L 11.425781 19.257812 L 10.40625 19.257812 Z M 10.25 18.335938 "/>
<path style=" stroke:none;fill-rule:nonzero;fill:rgb(25.882354%,25.882354%,25.882354%);fill-opacity:1;" d="M 9.097656 7.902344 C 8.828125 7.894531 8.605469 8.105469 8.605469 8.375 L 8.605469 13.832031 C 8.605469 14.199219 9.003906 14.425781 9.320312 14.238281 L 13.867188 11.507812 C 14.171875 11.324219 14.171875 10.882812 13.867188 10.699219 L 9.320312 7.96875 C 9.25 7.929688 9.175781 7.90625 9.097656 7.902344 Z M 9.097656 7.902344 "/>
<path style=" stroke:none;fill-rule:nonzero;fill:rgb(95.686275%,26.274511%,21.176471%);fill-opacity:1;" d="M 18.589844 20.050781 L 14.730469 16.191406 C 14.554688 16.011719 14.554688 15.726562 14.730469 15.546875 L 15.375 14.90625 C 15.554688 14.726562 15.839844 14.726562 16.019531 14.90625 L 19.878906 18.765625 C 20.054688 18.941406 20.054688 19.230469 19.878906 19.40625 L 19.234375 20.050781 C 19.058594 20.226562 18.769531 20.226562 18.589844 20.050781 Z M 18.589844 20.050781 "/>
<path style=" stroke:none;fill-rule:nonzero;fill:rgb(95.686275%,26.274511%,21.176471%);fill-opacity:1;" d="M 14.730469 18.765625 L 18.589844 14.90625 C 18.769531 14.726562 19.058594 14.726562 19.234375 14.90625 L 19.878906 15.546875 C 20.054688 15.726562 20.054688 16.011719 19.878906 16.191406 L 16.019531 20.050781 C 15.839844 20.226562 15.554688 20.226562 15.375 20.050781 L 14.730469 19.40625 C 14.554688 19.230469 14.554688 18.941406 14.730469 18.765625 Z M 14.730469 18.765625 "/>
</g>
</svg>
